source/images/relation.svg

<?xml version="1.0" encoding="iso-8859-1"?>
<!-- Generator: Adobe Illustrator 19.0.0, SVG Export Plug-In . SVG Version: 6.00 Build 0)  -->
<svg version="1.1" id="Layer_1" xmlns="http://www.w3.org/2000/svg" xmlns:xlink="http://www.w3.org/1999/xlink" x="0px" y="0px"
	 viewBox="0 0 512 512" style="enable-background:new 0 0 512 512;" xml:space="preserve">
<g>
	<g>
		<path d="M438.55,188.698c-4.112-1.645-8.777,0.355-10.421,4.467l-7.449,18.622c-8.814-32.834-27.399-62.552-53.455-84.999
			C336.332,100.17,296.831,85.511,256,85.511c-27.996,0-55.388,6.839-79.894,19.854c-2.523-23.165-7.035-42.108-13.618-57.3
			C148.669,16.171,125.468,0,93.528,0c-31.94,0-55.141,16.171-68.96,48.065c-10.432,24.08-15.671,57.568-16.017,102.38
			c-0.048,6.247,3.696,11.975,9.539,14.591c5.305,2.377,11.061,4.471,17.219,6.277l-18.344,10.483
			C6.501,187.775,0,198.977,0,211.029v10.766c0,13.851,11.268,25.119,25.119,25.119h136.818c13.851,0,25.119-11.268,25.119-25.119
			v-10.766c0-12.052-6.501-23.254-16.966-29.234l-18.34-10.481c6.156-1.804,11.909-3.901,17.214-6.279
			c5.841-2.617,9.587-8.345,9.54-14.591c-0.075-9.698-0.379-18.864-0.916-27.521c23.689-13.984,50.718-21.379,78.412-21.379
			c36.991,0,72.775,13.279,100.761,37.389c24.585,21.18,41.826,49.492,49.374,80.691l-17.058-12.794
			c-3.541-2.656-8.567-1.938-11.223,1.603c-2.656,3.541-1.938,8.567,1.603,11.223l34.205,25.653c1.403,1.052,3.094,1.603,4.81,1.603
			c0.724,0,1.452-0.098,2.163-0.297c2.402-0.673,4.353-2.426,5.278-4.743l17.102-42.756
			C444.661,195.008,442.661,190.343,438.55,188.698z M162.138,195.718c5.481,3.133,8.887,9,8.887,15.313v10.765
			c0,5.01-4.076,9.086-9.086,9.086H25.121c-5.012,0-9.088-4.076-9.088-9.086v-10.766c0-6.313,3.406-12.181,8.887-15.313
			l19.811-11.32c3.49,4.939,20.836,27.978,46.263,36.454c0.823,0.275,1.679,0.411,2.535,0.411c0.856,0,1.712-0.137,2.535-0.411
			c25.427-8.476,42.773-31.515,46.263-36.454L162.138,195.718z M74.586,159.921l6.019,3.611c3.986,2.391,8.455,3.587,12.924,3.587
			s8.938-1.196,12.924-3.587l6.019-3.611c1.934,5.799,5.926,10.8,11.351,13.9l4.498,2.571c-4.001,5.367-17.024,21.366-34.79,28.327
			c-17.668-6.933-30.765-22.961-34.787-28.33l4.493-2.567C68.66,170.722,72.653,165.72,74.586,159.921z M58.789,121.759V84.202
			c5.317-0.264,12.787-0.818,20.909-1.977c16.975-2.425,29.989-6.522,38.836-12.211l9.733,9.732v42.013
			c0,6.16-3.28,11.955-8.563,15.124l-21.502,12.902c-2.883,1.729-6.466,1.729-9.349,0l-21.502-12.902
			C62.071,133.713,58.789,127.919,58.789,121.759z M162.41,150.405c-8.748,3.919-19.435,7.096-30.997,9.255
			c-2.604-1.663-4.216-4.581-4.216-7.743v-0.832l0.756-0.453c10.083-6.05,16.347-17.113,16.347-28.872V76.426
			c0-2.126-0.844-4.164-2.348-5.668l-17.102-17.102c-3.131-3.131-8.207-3.131-11.337,0c-5.652,5.652-18.4,10.152-35.895,12.67
			c-14.252,2.051-26.723,2.084-26.845,2.084c-4.427,0-8.017,3.589-8.017,8.017v45.333c0,11.759,6.264,22.823,16.347,28.872
			l0.756,0.453v0.833c0,3.163-1.613,6.082-4.217,7.744c-11.557-2.157-22.25-5.339-30.995-9.257c-0.025-0.01-0.044-0.021-0.061-0.03
			c0.341-42.518,5.149-73.901,14.695-95.935c11.197-25.843,28.941-38.405,54.247-38.405c25.306,0,43.051,12.563,54.247,38.405
			c9.546,22.034,14.353,53.418,14.695,95.935C162.454,150.384,162.434,150.394,162.41,150.405z"/>
	</g>
</g>
<g>
	<g>
		<path d="M490.152,430.377l-40.666-15.25c-2.65-0.994-4.644-3.171-5.474-5.79l4.053-3.04c7.858-5.894,12.74-14.895,13.393-24.696
			l1.914-28.724c0-0.002,0-0.004,0.001-0.006c0-0.001,0-0.002,0-0.003l3.42-51.303c0.775-11.616-3.342-23.153-11.295-31.653
			c-7.954-8.501-19.191-13.377-30.833-13.377h-46.594c-11.641,0-22.879,4.876-30.831,13.376
			c-7.953,8.501-12.07,20.039-11.296,31.653l5.336,80.037c0.066,0.993,0.187,1.974,0.339,2.948
			c-25.383,16.953-54.878,25.907-85.619,25.907c-36.99,0-72.775-13.278-100.76-37.389c-24.585-21.18-41.827-49.493-49.375-80.692
			l17.058,12.795c3.542,2.657,8.568,1.938,11.223-1.603c2.656-3.541,1.938-8.567-1.603-11.223l-34.205-25.653
			c-1.995-1.495-4.572-1.98-6.975-1.306c-2.402,0.673-4.352,2.426-5.278,4.743l-17.102,42.756
			c-1.645,4.111,0.355,8.776,4.466,10.421c0.977,0.39,1.984,0.575,2.975,0.575c3.182,0,6.192-1.907,7.446-5.042l7.449-18.621
			c8.814,32.834,27.4,62.552,53.456,85.001c30.894,26.615,70.394,41.274,111.225,41.274c32.902,0,64.521-9.283,91.959-26.91
			c1.892,2.517,4.14,4.788,6.715,6.719l4.053,3.04c-0.828,2.619-2.824,4.796-5.474,5.79l-40.666,15.25
			c-13.068,4.9-21.848,17.57-21.848,31.526v24.978c0,13.851,11.268,25.119,25.119,25.119h171.023
			C500.732,512,512,500.732,512,486.881v-24.978C512,447.947,503.22,435.277,490.152,430.377z M351.943,300.498
			c-0.487-7.31,2-14.283,7.006-19.633c5.006-5.35,11.796-8.297,19.124-8.297h46.594c7.326,0,14.118,2.947,19.124,8.297
			c5.006,5.351,7.494,12.323,7.007,19.633l-0.079,1.182c-27.248,15.519-81.868,21.52-97.167,22.935L351.943,300.498z
			 M357.279,380.534l-2.661-39.906c14.292-1.275,63.015-6.484,94.868-20.461l-2.11,31.643c-0.887,13.249-12.851,24.44-26.129,24.44
			H401.37c-4.427,0-8.017,3.589-8.017,8.017c0,4.427,3.589,8.017,8.017,8.017h19.877c8.494,0,16.544-2.698,23.299-7.268
			c-1.13,3.335-3.223,6.298-6.099,8.455l-17.943,13.457c-3.032,2.275-6.792,3.527-10.582,3.527h-17.102
			c-3.79,0-7.55-1.253-10.582-3.527l-17.942-13.457C360.178,390.383,357.621,385.669,357.279,380.534z M393.353,495.967h-77.495
			c-5.01,0-9.086-4.076-9.086-9.086v-24.978c0-7.31,4.599-13.947,11.445-16.513l28.764-10.786l46.372,30.915V495.967z
			 M364.594,427.075c2.953-2.11,5.41-4.822,7.206-7.933l0.816,0.612c5.79,4.343,12.965,6.734,20.202,6.734h17.102
			c7.237,0,14.412-2.391,20.202-6.734l0.815-0.611c1.797,3.112,4.254,5.823,7.206,7.933l-36.774,24.516L364.594,427.075z
			 M495.968,486.881h-0.001c0,5.01-4.076,9.086-9.086,9.086h-77.495v-30.448l46.373-30.916l28.764,10.786
			c6.845,2.566,11.445,9.203,11.445,16.513V486.881z"/>
	</g>
</g>
<g>
</g>
<g>
</g>
<g>
</g>
<g>
</g>
<g>
</g>
<g>
</g>
<g>
</g>
<g>
</g>
<g>
</g>
<g>
</g>
<g>
</g>
<g>
</g>
<g>
</g>
<g>
</g>
<g>
</g>
</svg>

<?xml version="1.0" encoding="UTF-8"?>
<svg width="512px" height="513px" viewBox="0 0 512 513" version="1.1" xmlns="http://www.w3.org/2000/svg" xmlns:xlink="http://www.w3.org/1999/xlink">
    <!-- Generator: Sketch 41.2 (35397) - http://www.bohemiancoding.com/sketch -->
    <title>relation</title>
    <desc>Created with Sketch.</desc>
    <defs></defs>
    <g id="Page-1" stroke="none" stroke-width="1" fill="none" fill-rule="evenodd">
        <g id="Artboard" fill="#086788">
            <g id="relation">
                <g id="Layer_1">
                    <path d="M438.55,188.698 C434.438,187.053 429.773,189.053 428.129,193.165 L420.68,211.787 C411.866,178.953 393.281,149.235 367.225,126.788 C336.332,100.17 296.831,85.511 256,85.511 C228.004,85.511 200.612,92.35 176.106,105.365 C173.583,82.2 169.071,63.257 162.488,48.065 C148.669,16.171 125.468,0 93.528,0 C61.588,0 38.387,16.171 24.568,48.065 C14.136,72.145 8.897,105.633 8.551,150.445 C8.503,156.692 12.247,162.42 18.09,165.036 C23.395,167.413 29.151,169.507 35.309,171.313 L16.965,181.796 C6.501,187.775 0,198.977 0,211.029 L0,221.795 C0,235.646 11.268,246.914 25.119,246.914 L161.937,246.914 C175.788,246.914 187.056,235.646 187.056,221.795 L187.056,211.029 C187.056,198.977 180.555,187.775 170.09,181.795 L151.75,171.314 C157.906,169.51 163.659,167.413 168.964,165.035 C174.805,162.418 178.551,156.69 178.504,150.444 C178.429,140.746 178.125,131.58 177.588,122.923 C201.277,108.939 228.306,101.544 256,101.544 C292.991,101.544 328.775,114.823 356.761,138.933 C381.346,160.113 398.587,188.425 406.135,219.624 L389.077,206.83 C385.536,204.174 380.51,204.892 377.854,208.433 C375.198,211.974 375.916,217 379.457,219.656 L413.662,245.309 C415.065,246.361 416.756,246.912 418.472,246.912 C419.196,246.912 419.924,246.814 420.635,246.615 C423.037,245.942 424.988,244.189 425.913,241.872 L443.015,199.116 C444.661,195.008 442.661,190.343 438.55,188.698 Z M162.138,195.718 C167.619,198.851 171.025,204.718 171.025,211.031 L171.025,221.796 C171.025,226.806 166.949,230.882 161.939,230.882 L25.121,230.882 C20.109,230.882 16.033,226.806 16.033,221.796 L16.033,211.03 C16.033,204.717 19.439,198.849 24.92,195.717 L44.731,184.397 C48.221,189.336 65.567,212.375 90.994,220.851 C91.817,221.126 92.673,221.262 93.529,221.262 C94.385,221.262 95.241,221.125 96.064,220.851 C121.491,212.375 138.837,189.336 142.327,184.397 L162.138,195.718 Z M74.586,159.921 L80.605,163.532 C84.591,165.923 89.06,167.119 93.529,167.119 C97.998,167.119 102.467,165.923 106.453,163.532 L112.472,159.921 C114.406,165.72 118.398,170.721 123.823,173.821 L128.321,176.392 C124.32,181.759 111.297,197.758 93.531,204.719 C75.863,197.786 62.766,181.758 58.744,176.389 L63.237,173.822 C68.66,170.722 72.653,165.72 74.586,159.921 Z M58.789,121.759 L58.789,84.202 C64.106,83.938 71.576,83.384 79.698,82.225 C96.673,79.8 109.687,75.703 118.534,70.014 L128.267,79.746 L128.267,121.759 C128.267,127.919 124.987,133.714 119.704,136.883 L98.202,149.785 C95.319,151.514 91.736,151.514 88.853,149.785 L67.351,136.883 C62.071,133.713 58.789,127.919 58.789,121.759 Z M162.41,150.405 C153.662,154.324 142.975,157.501 131.413,159.66 C128.809,157.997 127.197,155.079 127.197,151.917 L127.197,151.085 L127.953,150.632 C138.036,144.582 144.3,133.519 144.3,121.76 L144.3,76.426 C144.3,74.3 143.456,72.262 141.952,70.758 L124.85,53.656 C121.719,50.525 116.643,50.525 113.513,53.656 C107.861,59.308 95.113,63.808 77.618,66.326 C63.366,68.377 50.895,68.41 50.773,68.41 C46.346,68.41 42.756,71.999 42.756,76.427 L42.756,121.76 C42.756,133.519 49.02,144.583 59.103,150.632 L59.859,151.085 L59.859,151.918 C59.859,155.081 58.246,158 55.642,159.662 C44.085,157.505 33.392,154.323 24.647,150.405 C24.622,150.395 24.603,150.384 24.586,150.375 C24.927,107.857 29.735,76.474 39.281,54.44 C50.478,28.597 68.222,16.035 93.528,16.035 C118.834,16.035 136.579,28.598 147.775,54.44 C157.321,76.474 162.128,107.858 162.47,150.375 C162.454,150.384 162.434,150.394 162.41,150.405 Z" id="Shape"></path>
                    <path d="M490.152,430.377 L449.486,415.127 C446.836,414.133 444.842,411.956 444.012,409.337 L448.065,406.297 C455.923,400.403 460.805,391.402 461.458,381.601 L463.372,352.877 C463.372,352.875 463.372,352.873 463.373,352.871 L463.373,352.868 L466.793,301.565 C467.568,289.949 463.451,278.412 455.498,269.912 C447.544,261.411 436.307,256.535 424.665,256.535 L378.071,256.535 C366.43,256.535 355.192,261.411 347.24,269.911 C339.287,278.412 335.17,289.95 335.944,301.564 L341.28,381.601 C341.346,382.594 341.467,383.575 341.619,384.549 C316.236,401.502 286.741,410.456 256,410.456 C219.01,410.456 183.225,397.178 155.24,373.067 C130.655,351.887 113.413,323.574 105.865,292.375 L122.923,305.17 C126.465,307.827 131.491,307.108 134.146,303.567 C136.802,300.026 136.084,295 132.543,292.344 L98.338,266.691 C96.343,265.196 93.766,264.711 91.363,265.385 C88.961,266.058 87.011,267.811 86.085,270.128 L68.983,312.884 C67.338,316.995 69.338,321.66 73.449,323.305 C74.426,323.695 75.433,323.88 76.424,323.88 C79.606,323.88 82.616,321.973 83.87,318.838 L91.319,300.217 C100.133,333.051 118.719,362.769 144.775,385.218 C175.669,411.833 215.169,426.492 256,426.492 C288.902,426.492 320.521,417.209 347.959,399.582 C349.851,402.099 352.099,404.37 354.674,406.301 L358.727,409.341 C357.899,411.96 355.903,414.137 353.253,415.131 L312.587,430.381 C299.519,435.281 290.739,447.951 290.739,461.907 L290.739,486.885 C290.739,500.736 302.007,512.004 315.858,512.004 L486.881,512.004 C500.732,512 512,500.732 512,486.881 L512,461.903 C512,447.947 503.22,435.277 490.152,430.377 Z M351.943,300.498 C351.456,293.188 353.943,286.215 358.949,280.865 C363.955,275.515 370.745,272.568 378.073,272.568 L424.667,272.568 C431.993,272.568 438.785,275.515 443.791,280.865 C448.797,286.216 451.285,293.188 450.798,300.498 L450.719,301.68 C423.471,317.199 368.851,323.2 353.552,324.615 L351.943,300.498 Z M357.279,380.534 L354.618,340.628 C368.91,339.353 417.633,334.144 449.486,320.167 L447.376,351.81 C446.489,365.059 434.525,376.25 421.247,376.25 L401.37,376.25 C396.943,376.25 393.353,379.839 393.353,384.267 C393.353,388.694 396.942,392.284 401.37,392.284 L421.247,392.284 C429.741,392.284 437.791,389.586 444.546,385.016 C443.416,388.351 441.323,391.314 438.447,393.471 L420.504,406.928 C417.472,409.203 413.712,410.455 409.922,410.455 L392.82,410.455 C389.03,410.455 385.27,409.202 382.238,406.928 L364.296,393.471 C360.178,390.383 357.621,385.669 357.279,380.534 Z M393.353,495.967 L315.858,495.967 C310.848,495.967 306.772,491.891 306.772,486.881 L306.772,461.903 C306.772,454.593 311.371,447.956 318.217,445.39 L346.981,434.604 L393.353,465.519 L393.353,495.967 Z M364.594,427.075 C367.547,424.965 370.004,422.253 371.8,419.142 L372.616,419.754 C378.406,424.097 385.581,426.488 392.818,426.488 L409.92,426.488 C417.157,426.488 424.332,424.097 430.122,419.754 L430.937,419.143 C432.734,422.255 435.191,424.966 438.143,427.076 L401.369,451.592 L364.594,427.075 Z M495.968,486.881 L495.967,486.881 C495.967,491.891 491.891,495.967 486.881,495.967 L409.386,495.967 L409.386,465.519 L455.759,434.603 L484.523,445.389 C491.368,447.955 495.968,454.592 495.968,461.902 L495.968,486.881 Z" id="Shape"></path>
                </g>
            </g>
        </g>
    </g>
</svg>
